src/assets/images/icons/icon-play.svg

<svg fill="none" height="28" viewBox="0 0 24 28" width="24" xmlns="http://www.w3.org/2000/svg"><g fill="#b8a60a"><path d="m1.91003.179759 21.05447 12.670741c.8487.5108.8487 1.7882 0 2.299l-21.05447 12.6707c-.84872.5109-1.91003-.1278-1.91003-1.1494v-25.34158c0-1.021616 1.06077-1.660269 1.91003-1.149461z"/><path d="m22.9645 12.8507-21.05445-12.670822c-.12701-.076138-.25838-.1193215-.39029-.1471632l20.35454 12.2497852c.8488.5108.8488 1.7881 0 2.2989l-21.054452 12.6708c-.19024.1142-.390293.1636-.587619.171.357586.533 1.068941.7631 1.677821.3972l21.05445-12.6708c.8488-.5108.8488-1.7881 0-2.2989z"/><path d="m1.91003.179759 21.05447 12.670741c.8487.5108.8487 1.7882 0 2.299l-21.05447 12.6707c-.84872.5109-1.91003-.1278-1.91003-1.1494v-25.34158c0-1.021616 1.06077-1.660269 1.91003-1.149461z"/></g></svg>

<svg width="24" height="28" viewBox="0 0 24 28" fill="none" xmlns="http://www.w3.org/2000/svg">
<path d="M1.91003 0.179759L22.9645 12.8505C23.8132 13.3613 23.8132 14.6387 22.9645 15.1495L1.91003 27.8202C1.06131 28.3311 0 27.6924 0 26.6708V1.32922C0 0.307604 1.06077 -0.331049 1.91003 0.179759Z" fill="#B8A60A"/>
<path d="M22.9645 12.8507L1.91005 0.179878C1.78304 0.10374 1.65167 0.0605565 1.51976 0.0327148L21.8743 12.2825C22.7231 12.7933 22.7231 14.0706 21.8743 14.5814L0.819848 27.2522C0.629608 27.3664 0.429555 27.4158 0.232229 27.4232C0.589815 27.9562 1.30117 28.1863 1.91005 27.8204L22.9645 15.1496C23.8133 14.6388 23.8133 13.3615 22.9645 12.8507Z" fill="#B8A60A"/>
<path d="M1.91003 0.179759L22.9645 12.8505C23.8132 13.3613 23.8132 14.6387 22.9645 15.1495L1.91003 27.8202C1.06131 28.3311 0 27.6924 0 26.6708V1.32922C0 0.307604 1.06077 -0.331049 1.91003 0.179759Z" fill="#B8A60A"/>
</svg>
